packages/ui-icons/src/Basic/32/Church_32.svg

<svg xmlns="http://www.w3.org/2000/svg" viewBox="0 0 40 40"><path d="M10 21.32a4 4 0 0 0-2 3.47V36h10v-8a2 2 0 0 1 .58-1.41A2 2 0 0 1 22 28v8h10V24.79a4 4 0 0 0-2.08-3.5L26 19.37v-4.15a4.76 4.76 0 0 0 2-3.83c0-2.74-2.21-3.68-4-4.39-1.59-.67-2.58-1.16-2.85-2.21L21 4h-2l-.19.75C18.57 5.8 17.59 6.29 16 7c-1.77.75-4 1.68-4 4.43a4.76 4.76 0 0 0 2 3.84v4.15Zm6.77-12.51a8.1 8.1 0 0 0 3.23-2 8.1 8.1 0 0 0 3.23 2C25 9.55 26 10 26 11.39A2.88 2.88 0 0 1 24.09 14H15.9a2.88 2.88 0 0 1-1.9-2.61c0-1.39 1-1.84 2.77-2.58ZM16 20.62V16h8v4.62l5 2.43a2 2 0 0 1 1 1.74V34h-6v-6a4 4 0 0 0-6.83-2.83A4 4 0 0 0 16 28v6h-6v-9.21a2 2 0 0 1 1-1.71ZM14 30h-2v-4h2Zm14 0h-2v-4h2Z"/></svg>

<svg id="Ready" xmlns="http://www.w3.org/2000/svg" viewBox="0 0 40 40"><title>Megaicons_work_32_1.8_cp</title><path d="M10,21.32a4,4,0,0,0-2,3.47V36H18V28a2,2,0,0,1,.58-1.41A2,2,0,0,1,22,28v8H32V24.79a4,4,0,0,0-2.08-3.5L26,19.37V15.22a4.76,4.76,0,0,0,2-3.83C28,8.65,25.79,7.71,24,7c-1.59-.67-2.58-1.16-2.85-2.21L21,4H19l-.19.75C18.57,5.8,17.59,6.29,16,7c-1.77.75-4,1.68-4,4.43a4.76,4.76,0,0,0,2,3.84v4.15ZM16.77,8.81a8.1,8.1,0,0,0,3.23-2,8.1,8.1,0,0,0,3.23,2C25,9.55,26,10,26,11.39A2.88,2.88,0,0,1,24.09,14H15.9A2.88,2.88,0,0,1,14,11.39C14,10,15,9.55,16.77,8.81ZM16,20.62V16h8v4.62l5,2.43a2,2,0,0,1,1,1.74V34H24V28a4,4,0,0,0-6.83-2.83A4,4,0,0,0,16,28v6H10V24.79a2,2,0,0,1,1-1.71ZM14,30H12V26h2Zm14,0H26V26h2Z"/></svg>
